X:1
T:[ID 1-109a]
T:[ID 1-109a]
T:Bezeichnung standardisiert: Tanz mit mir; Allegro Primo \"Ahnlich in dieser Quelle: ID 1-109a; \"Ahnlich in anderer Quelle: Neu-Hollaendisch - Hs. Arendsee (Anm. S. Wascher);
T:Urheber unbekannt Datum in der hier transkribierten schriftlichen Quelle: 1792
C:Urheber unbekannt
C:Datum in der hier transkribierten schriftlichen Quelle: 1792
%%score 1 2
L:1/8
M:2/4
K:D
V:1 treble nm="Primo"
V:2 treble nm="Secondo"
V:1
 df fe/d/ | eg gf/e/ | fa ag/f/ | e/d/c/B/ A/B/c/A/ | df fe/d/ | eg fe/d/ | fe/d/ c/d/e/c/ | d4 :: %8
 fa ag/f/ | ga b2 | eg gf/e/ | fg a2 | df fe/d/ | eg gf/e/ | fe/d/ c/d/e/c/ | d4 :| %16
V:2
 !fermata!Fd dA/F/ | Ae ed/A/ | df fe/d/ | A2 A/B/A/G/ | Fd dA/F/ | Ae ed/A/ | G/F/G/E/ AG | F4 :: %8
 df fe/d/ | ef g2 | ce ed/A/ | de f2 | Fd dA/F/ | Ae ed/A/ | G/F/G/E/ AG | F4 :| %16

